src/lib/packages/icons/src/assets/line/poll-vertical-square.svg

<svg xmlns="http://www.w3.org/2000/svg" width="24" height="24" fill="none"><path fill="currentColor" d="M17.625 21.75H6.375c-2.66 0-4.125-1.465-4.125-4.125V6.375c0-2.66 1.465-4.125 4.125-4.125h11.25c2.66 0 4.125 1.465 4.125 4.125v11.25c0 2.66-1.465 4.125-4.125 4.125Zm-11.25-18c-1.84 0-2.625.785-2.625 2.625v11.25c0 1.84.785 2.625 2.625 2.625h11.25c1.84 0 2.625-.785 2.625-2.625V6.375c0-1.84-.785-2.625-2.625-2.625H6.375ZM8.75 16v-5a.75.75 0 0 0-1.5 0v5a.75.75 0 0 0 1.5 0Zm4 0V8a.75.75 0 0 0-1.5 0v8a.75.75 0 0 0 1.5 0Zm4 0v-3a.75.75 0 0 0-1.5 0v3a.75.75 0 0 0 1.5 0Z"/></svg>

<svg width="24" height="24" viewBox="0 0 24 24" fill="none" xmlns="http://www.w3.org/2000/svg">
<path d="M17.625 21.75H6.375C3.715 21.75 2.25 20.285 2.25 17.625V6.375C2.25 3.715 3.715 2.25 6.375 2.25H17.625C20.285 2.25 21.75 3.715 21.75 6.375V17.625C21.75 20.285 20.285 21.75 17.625 21.75ZM6.375 3.75C4.535 3.75 3.75 4.535 3.75 6.375V17.625C3.75 19.465 4.535 20.25 6.375 20.25H17.625C19.465 20.25 20.25 19.465 20.25 17.625V6.375C20.25 4.535 19.465 3.75 17.625 3.75H6.375ZM8.75 16V11C8.75 10.586 8.414 10.25 8 10.25C7.586 10.25 7.25 10.586 7.25 11V16C7.25 16.414 7.586 16.75 8 16.75C8.414 16.75 8.75 16.414 8.75 16ZM12.75 16V8C12.75 7.586 12.414 7.25 12 7.25C11.586 7.25 11.25 7.586 11.25 8V16C11.25 16.414 11.586 16.75 12 16.75C12.414 16.75 12.75 16.414 12.75 16ZM16.75 16V13C16.75 12.586 16.414 12.25 16 12.25C15.586 12.25 15.25 12.586 15.25 13V16C15.25 16.414 15.586 16.75 16 16.75C16.414 16.75 16.75 16.414 16.75 16Z" fill="currentColor"/>
</svg>
